static/logos/thepentool-wordmark-color.svg

<svg width="84" height="38" viewBox="0 0 84 38" fill="none" xmlns="http://www.w3.org/2000/svg">
<g clip-path="url(#clip0_1_718)">
<path d="M6.46876 22.3521H0.984375V37.6607H4.45276V33.1007H6.46876C10.3273 33.1007 13.2755 32.3624 13.2755 27.7155C13.2755 23.0904 10.3273 22.3521 6.46876 22.3521ZM6.68554 30.0607H4.45276V25.3921H6.68554C8.74489 25.3921 9.80708 25.6093 9.80708 27.7155C9.80708 29.8435 8.74489 30.0607 6.68554 30.0607Z" fill="black"/>
<path d="M13.0625 32.0367C13.0625 35.1419 14.9918 37.8779 19.1972 37.8779C22.9908 37.8779 24.79 35.3807 25.0068 33.7956H21.5384C21.3216 34.6207 20.4111 35.055 19.1972 35.055C17.2246 35.055 16.3141 34.1647 16.3141 32.9053H24.6166V31.8196C24.6166 28.4973 22.232 26.4778 18.8287 26.4778C15.4253 26.4778 13.0625 28.5624 13.0625 32.0367ZM16.3141 30.951C16.3141 30.1258 16.8994 29.3007 18.8287 29.3007C20.758 29.3007 21.365 30.1258 21.365 30.951H16.3141Z" fill="black"/>
<path d="M32.2384 29.5178C33.9077 29.5178 34.493 30.2778 34.493 32.2756V37.6607H37.961V31.7327C37.961 28.3453 36.2705 26.4778 33.474 26.4778C31.1328 26.4778 29.7671 28.0196 29.3336 29.9738H28.4665L29.1168 28.0196V26.695H25.6484V37.6607H29.1168V33.6001C29.1168 30.5167 30.3524 29.5178 32.2384 29.5178Z" fill="black"/>
<path d="M52.282 22.3521H38.8203V25.3921H43.8278V37.6607H47.2962V25.3921H52.282V22.3521Z" fill="black"/>
<path d="M49.4531 32.167C49.4531 36.0104 52.1845 37.8779 55.6312 37.8779C59.0562 37.8779 61.7876 36.0104 61.7876 32.167C61.7876 28.3453 59.0562 26.4778 55.6312 26.4778C52.1845 26.4778 49.4531 28.3453 49.4531 32.167ZM52.9215 32.167C52.9215 30.343 53.9837 29.5178 55.6312 29.5178C57.257 29.5178 58.3192 30.343 58.3192 32.167C58.3192 34.0127 57.257 34.8379 55.6312 34.8379C53.9837 34.8379 52.9215 34.0127 52.9215 32.167Z" fill="black"/>
<path d="M62.0078 32.167C62.0078 36.0104 64.7392 37.8779 68.1859 37.8779C71.6109 37.8779 74.3423 36.0104 74.3423 32.167C74.3423 28.3453 71.6109 26.4778 68.1859 26.4778C64.7392 26.4778 62.0078 28.3453 62.0078 32.167ZM65.4762 32.167C65.4762 30.343 66.5384 29.5178 68.1859 29.5178C69.8117 29.5178 70.8739 30.343 70.8739 32.167C70.8739 34.0127 69.8117 34.8379 68.1859 34.8379C66.5384 34.8379 65.4762 34.0127 65.4762 32.167Z" fill="black"/>
<path d="M74.3438 37.6607H83.8818V34.6207H80.847V23.3727C80.847 22.1567 80.175 21.5052 78.961 21.5487L74.7773 21.7007V24.7407L77.3786 24.6104V34.6207H74.3438V37.6607Z" fill="black"/>
<path d="M4.46851 15.3438V7.35298H7.82851V5.83298H4.46851V2.51068L2.71264 3.05354V5.83298H0.328125V7.35298H2.71264V15.3656C2.71264 16.3644 3.16787 16.9073 4.18671 16.8421L8.26206 16.625V15.105L4.46851 15.3438Z" fill="black"/>
<path d="M16.0175 5.61585C13.6764 5.61585 12.3107 6.98385 11.8771 8.93813H11.3786L11.6604 7.70042V0.664978H9.88281V16.625H11.6604V11.8478C11.6604 8.93813 13.2645 7.13585 15.5406 7.13585C17.3832 7.13585 18.272 8.00442 18.272 10.2627V16.625H20.0278V10.0238C20.0278 7.02728 18.4454 5.61585 16.0175 5.61585Z" fill="black"/>
<path d="M21.6016 11.0878C21.6016 14.193 23.2274 16.8421 27.086 16.8421C30.511 16.8421 31.8116 14.5187 32.2235 12.8467H30.4459C30.0558 14.497 28.8635 15.3656 27.086 15.3656C24.4196 15.3656 23.4441 13.6067 23.3358 11.5656H31.855V10.8707C31.855 7.54842 29.8607 5.61584 26.8258 5.61584C23.7693 5.61584 21.6016 7.61356 21.6016 11.0878ZM23.3358 10.2193C23.3358 8.48213 24.7014 7.11413 26.8258 7.11413C28.9719 7.11413 30.1208 8.48213 30.1208 10.2193H23.3358Z" fill="black"/>
<path d="M66.3154 19.1763C66.5065 19.4987 66.9217 19.6052 67.2438 19.4141C67.5656 19.2231 67.672 18.8069 67.4813 18.4844L66.3154 19.1763ZM58.6 16.1161L57.9229 16.0938L57.8911 17.0681L58.8144 16.7598L58.6 16.1161ZM54.5355 0.678585L55.0361 0.221252L53.9844 1.073L54.5355 0.678585ZM69.1 6.10716L69.7384 6.33407L70.0765 5.37966L69.0668 5.4294L69.1 6.10716ZM71.8371 14.5134C72.1694 14.6856 72.5782 14.5553 72.7499 14.2225C72.922 13.8896 72.7919 13.4802 72.4596 13.308L71.8371 14.5134ZM66.8984 18.8304C67.4813 18.4844 67.4809 18.4841 67.4806 18.4838C67.4806 18.4836 67.4806 18.4833 67.4803 18.483C67.4799 18.4824 67.4796 18.4818 67.4792 18.4811C67.4782 18.4797 67.4772 18.4781 67.4762 18.4761C67.4738 18.4723 67.4708 18.4673 67.4671 18.4613C67.4596 18.4492 67.4494 18.4329 67.4366 18.4128C67.4108 18.3725 67.3739 18.3166 67.3258 18.248C67.23 18.1108 67.0891 17.9217 66.9028 17.7031C66.5309 17.2672 65.9716 16.7064 65.2187 16.2075C63.6928 15.1964 61.4031 14.4648 58.3859 15.4723L58.8144 16.7598C61.3855 15.9013 63.245 16.5269 64.4712 17.3394C65.0944 17.7524 65.5615 18.22 65.8727 18.5846C66.0275 18.7663 66.142 18.9204 66.2162 19.0264C66.2531 19.0794 66.2799 19.1201 66.2965 19.146C66.3049 19.1589 66.3107 19.1682 66.3137 19.1733C66.3154 19.1759 66.3161 19.1775 66.3165 19.178C66.3168 19.1782 66.3168 19.1782 66.3165 19.1779C66.3165 19.1778 66.3165 19.1776 66.3161 19.1773C66.3161 19.1772 66.3161 19.177 66.3158 19.1769C66.3158 19.1766 66.3154 19.1763 66.8984 18.8304ZM59.277 16.1383C59.4498 10.861 58.4133 6.90597 57.3207 4.25761C56.775 2.93449 56.2161 1.93955 55.789 1.27009C55.5753 0.935353 55.3948 0.68192 55.2654 0.509427C55.2003 0.423177 55.1485 0.357146 55.1113 0.311291C55.0926 0.288362 55.0781 0.270475 55.0672 0.257623C55.0618 0.251197 55.0574 0.246029 55.054 0.24212C55.0527 0.240165 55.051 0.238525 55.05 0.237199C55.0493 0.236536 55.0489 0.235952 55.0486 0.235446C55.0483 0.235193 55.0479 0.234872 55.0479 0.234746C55.0476 0.234445 55.0472 0.234164 54.5355 0.678585C54.0237 1.12301 54.0233 1.12276 54.023 1.12254C54.023 1.12249 54.023 1.12229 54.023 1.12219C54.0226 1.12199 54.0226 1.12188 54.0226 1.12183C54.0223 1.12175 54.0226 1.12197 54.023 1.12251C54.024 1.12357 54.026 1.12586 54.0287 1.12938C54.0348 1.13642 54.0447 1.14837 54.0582 1.16524C54.0856 1.19899 54.1276 1.2524 54.1829 1.32552C54.2926 1.47177 54.4535 1.69678 54.6472 2.00086C55.0354 2.60901 55.556 3.53317 56.0688 4.7759C57.093 7.2592 58.0889 11.0229 57.9229 16.0938L59.277 16.1383ZM54.5355 0.678585C53.9844 1.073 53.9844 1.07335 53.9847 1.07371C53.9847 1.07387 53.9851 1.07426 53.9854 1.07456C53.9857 1.07517 53.9864 1.07587 53.9867 1.07667C53.9881 1.07825 53.9895 1.08019 53.9912 1.08249C53.9945 1.08708 53.9989 1.09308 54.0044 1.10045C54.0152 1.11519 54.0304 1.1354 54.0501 1.16068C54.089 1.21125 54.1456 1.28217 54.2198 1.37037C54.3685 1.54674 54.5886 1.79242 54.884 2.08276C55.4747 2.66332 56.3679 3.42354 57.5937 4.16464C60.0513 5.65061 63.8249 7.0464 69.1332 6.78488L69.0668 5.4294C64.0444 5.67681 60.5357 4.35831 58.2938 3.00276C57.1696 2.3231 56.3587 1.63078 55.8327 1.11397C55.5699 0.855617 55.3785 0.641416 55.2552 0.495065C55.1936 0.421905 55.1492 0.36576 55.1211 0.3296C55.1072 0.311522 55.0974 0.298449 55.0916 0.290751C55.0886 0.286902 55.0869 0.284398 55.0862 0.283285C55.0855 0.282729 55.0855 0.28252 55.0855 0.282666C55.0855 0.282738 55.0859 0.2829 55.0859 0.28315C55.0862 0.283275 55.0862 0.28353 55.0862 0.283592C55.0865 0.283869 55.0865 0.284169 54.5355 0.678585ZM68.4615 5.88021C67.4389 8.76672 68.2816 10.9554 69.3889 12.3952C69.9346 13.1042 70.5398 13.6289 71.0062 13.9758C71.2406 14.15 71.4425 14.2813 71.5881 14.3704C71.661 14.415 71.7202 14.4491 71.7626 14.4729C71.7839 14.4848 71.8008 14.4941 71.8134 14.5009C71.8198 14.5043 71.8249 14.507 71.829 14.5091C71.8307 14.5101 71.8323 14.511 71.834 14.5117C71.8347 14.5121 71.8351 14.5124 71.8357 14.5127C71.8361 14.5129 71.8364 14.513 71.8364 14.5131C71.8367 14.5133 71.8371 14.5134 72.1484 13.9107C72.4596 13.308 72.46 13.3081 72.46 13.3083C72.4603 13.3083 72.4603 13.3084 72.4606 13.3085C72.4606 13.3086 72.461 13.3087 72.461 13.3088C72.4613 13.3089 72.4613 13.3088 72.4606 13.3086C72.46 13.3082 72.4583 13.3072 72.4552 13.3056C72.4491 13.3024 72.439 13.2968 72.4247 13.2888C72.396 13.2727 72.3516 13.2471 72.2937 13.2118C72.1782 13.1412 72.0108 13.0327 71.8137 12.8861C71.4178 12.5915 70.9117 12.1513 70.4623 11.5669C69.5799 10.4196 68.8981 8.70649 69.7384 6.33407L68.4615 5.88021ZM54.0348 1.13592L62.8416 10.8056L63.8425 9.89087L55.0361 0.221252L54.0348 1.13592Z" fill="black"/>
<path fill-rule="evenodd" clip-rule="evenodd" d="M64.3548 10.4703C63.7674 10.4703 63.2912 10.9473 63.2912 11.5357C63.2912 12.1241 63.7674 12.601 64.3548 12.601C64.9422 12.601 65.4183 12.1241 65.4183 11.5357C65.4183 10.9473 64.9422 10.4703 64.3548 10.4703ZM62.0312 11.5357C62.0312 10.2502 63.0715 9.20819 64.3548 9.20819C65.6381 9.20819 66.6783 10.2502 66.6783 11.5357C66.6783 12.8211 65.6381 13.8632 64.3548 13.8632C63.0715 13.8632 62.0312 12.8211 62.0312 11.5357Z" fill="black"/>
</g>
<defs>
<clipPath id="clip0_1_718">
<rect width="84" height="38" fill="white"/>
</clipPath>
</defs>
</svg>

<svg xmlns="http://www.w3.org/2000/svg" width="141.474" height="64" fill="none" viewBox="0 0 84 38"><g fill="#000" clip-path="url(#a)"><path d="M6.469 22.352H.984v15.309h3.469V33.1h2.016c3.858 0 6.806-.739 6.806-5.386 0-4.625-2.948-5.363-6.806-5.363Zm.217 7.709H4.453v-4.669h2.233c2.059 0 3.121.217 3.121 2.323 0 2.128-1.062 2.346-3.121 2.346Z"/><path d="M13.063 32.037c0 3.105 1.929 5.84 6.134 5.84 3.794 0 5.593-2.496 5.81-4.081h-3.469c-.216.825-1.127 1.259-2.34 1.259-1.973 0-2.884-.89-2.884-2.15h8.303V31.82c0-3.323-2.385-5.342-5.788-5.342-3.404 0-5.767 2.084-5.767 5.559Zm3.251-1.086c0-.825.585-1.65 2.515-1.65 1.929 0 2.536.825 2.536 1.65h-5.05ZM32.238 29.518c1.67 0 2.255.76 2.255 2.758v5.385h3.468v-5.928c0-3.388-1.69-5.255-4.487-5.255-2.341 0-3.707 1.542-4.14 3.496h-.867l.65-1.954v-1.325h-3.469v10.966h3.469V33.6c0-3.084 1.235-4.083 3.121-4.083ZM52.282 22.352H38.82v3.04h5.008v12.269h3.468V25.392h4.986v-3.04Z"/><path d="M49.453 32.167c0 3.843 2.731 5.71 6.178 5.71 3.425 0 6.157-1.867 6.157-5.71 0-3.822-2.732-5.69-6.157-5.69-3.447 0-6.178 1.868-6.178 5.69Zm3.468 0c0-1.824 1.063-2.65 2.71-2.65 1.626 0 2.688.826 2.688 2.65 0 1.846-1.062 2.67-2.688 2.67-1.647 0-2.71-.824-2.71-2.67ZM62.008 32.167c0 3.843 2.731 5.71 6.178 5.71 3.425 0 6.156-1.867 6.156-5.71 0-3.822-2.731-5.69-6.156-5.69-3.447 0-6.178 1.868-6.178 5.69Zm3.468 0c0-1.824 1.062-2.65 2.71-2.65 1.626 0 2.688.826 2.688 2.65 0 1.846-1.062 2.67-2.688 2.67-1.648 0-2.71-.824-2.71-2.67ZM74.344 37.66h9.538v-3.04h-3.035V23.374c0-1.216-.672-1.868-1.886-1.824l-4.184.152v3.04l2.602-.13v10.01h-3.035v3.04ZM4.469 15.344V7.353h3.36v-1.52h-3.36V2.511l-1.756.543v2.779H.328v1.52h2.385v8.013c0 .998.455 1.541 1.474 1.476l4.075-.217v-1.52l-3.793.239ZM16.017 5.616c-2.34 0-3.706 1.368-4.14 3.322h-.498L11.66 7.7V.665H9.883v15.96h1.777v-4.777c0-2.91 1.604-4.712 3.88-4.712 1.843 0 2.732.868 2.732 3.127v6.362h1.756v-6.601c0-2.997-1.583-4.408-4.01-4.408ZM21.602 11.088c0 3.105 1.625 5.754 5.484 5.754 3.425 0 4.726-2.323 5.138-3.995h-1.778c-.39 1.65-1.583 2.519-3.36 2.519-2.666 0-3.642-1.76-3.75-3.8h8.519v-.695c0-3.323-1.994-5.255-5.03-5.255-3.056 0-5.223 1.998-5.223 5.472Zm1.734-.869c0-1.737 1.365-3.105 3.49-3.105 2.146 0 3.295 1.368 3.295 3.105h-6.785ZM66.315 19.176a.677.677 0 1 0 1.166-.692l-1.166.692Zm-7.715-3.06-.677-.022-.032.974.923-.308-.214-.644ZM54.535.68l.501-.458-1.052.852.551-.394ZM69.1 6.107l.638.227.338-.954-1.01.05.034.677Zm2.737 8.406a.679.679 0 0 0 .622-1.205l-.622 1.205Zm-4.939 4.317.583-.346v-.001l-.002-.002a.037.037 0 0 1-.003-.005l-.009-.015a4.728 4.728 0 0 0-.141-.213 7.232 7.232 0 0 0-.423-.545 8.156 8.156 0 0 0-1.684-1.495c-1.526-1.012-3.816-1.743-6.833-.736l.428 1.288c2.572-.859 4.431-.233 5.657.58a6.805 6.805 0 0 1 1.745 1.686 3.836 3.836 0 0 1 .098.147l.003.005-.001-.001.582-.347Zm-7.621-2.692c.173-5.277-.864-9.232-1.956-11.88a19.143 19.143 0 0 0-1.532-2.988 12.334 12.334 0 0 0-.524-.76 7.403 7.403 0 0 0-.154-.199l-.044-.053a1.25 1.25 0 0 0-.013-.016L55.05.237l-.001-.002h-.001l-.513.444-.512.444v-.001a17.79 17.79 0 0 1 2.046 3.653c1.024 2.484 2.02 6.248 1.854 11.319l1.354.044ZM54.535.678l-.55.396.002.003.004.005a1.292 1.292 0 0 0 .06.079c.038.05.095.121.169.21.148.176.369.421.664.712.59.58 1.484 1.34 2.71 2.082 2.457 1.486 6.23 2.881 11.54 2.62l-.067-1.356c-5.023.248-8.531-1.07-10.773-2.426a13.434 13.434 0 0 1-2.461-1.889A9.111 9.111 0 0 1 55.12.33l-.03-.04a.1.1 0 0 1-.005-.007l-.55.396ZM68.463 5.88c-1.023 2.887-.18 5.075.927 6.515a8.326 8.326 0 0 0 2.374 2.078 4.131 4.131 0 0 0 .071.039h.002v.001l.312-.602.312-.603h.001l-.006-.002a6.44 6.44 0 0 1-.642-.42 6.962 6.962 0 0 1-1.35-1.32c-.883-1.146-1.565-2.86-.725-5.232l-1.276-.454ZM54.035 1.136l8.807 9.67 1-.915L55.037.22l-1.001.915Z"/><path fill-rule="evenodd" d="M64.355 10.47a1.065 1.065 0 1 0 .002 2.13 1.065 1.065 0 0 0-.002-2.13Zm-2.324 1.066a2.326 2.326 0 0 1 2.324-2.328 2.325 2.325 0 0 1 2.323 2.328 2.325 2.325 0 0 1-2.323 2.327 2.326 2.326 0 0 1-2.324-2.327Z" clip-rule="evenodd"/></g><defs><clipPath id="a"><path fill="#fff" d="M0 0h84v38H0z"/></clipPath></defs></svg>
